public/images/icon/external-link.svg

<svg fill="none" height="16" viewBox="0 0 18 16" width="18" xmlns="http://www.w3.org/2000/svg"><path clip-rule="evenodd" d="m11.25 3.80952-1.0372.06285c-5.54662.64846-9.586548 5.12481-10.0201 7.97183-.433552 2.8469-.000038 4.1558-.000038 4.1558.402668 0 1.228188-3.9336 4.218788-5.6869 2.99061-1.75337 4.06034-1.72888 5.87255-1.85034h.966v3.72774l6.75-6.13536c-2.1078-1.77933-6.75-6.05514-6.75-6.05514z" fill="#fff" fill-rule="evenodd"/></svg>

<svg width="18" height="16" viewBox="0 0 18 16" fill="none" xmlns="http://www.w3.org/2000/svg">
<path fill-rule="evenodd" clip-rule="evenodd" d="M11.25 3.80952L10.2128 3.87237C4.66618 4.52083 0.626252 8.99718 0.1927 11.8442C-0.240852 14.6911 0.192662 16 0.192662 16C0.59533 16 1.42085 12.0664 4.41145 10.3131C7.40206 8.55973 8.47179 8.58422 10.284 8.46276H11.25C11.25 8.77876 11.25 12.1905 11.25 12.1905L18 6.05514C15.8922 4.27581 11.25 0 11.25 0C11.25 0 11.25 3.49034 11.25 3.80952Z" fill="white"/>
</svg>
